dist/svg/static/pinterest-small.svg

<svg xmlns="http://www.w3.org/2000/svg" width="24" height="24" viewBox="0 0 24 24"><path d="M12.328 5c-3.82 0-5.747 2.74-5.747 5.024 0 1.383.524 2.613 1.647 3.072.184.075.349.002.402-.202.037-.14.125-.497.165-.645.053-.202.032-.272-.116-.448-.324-.382-.53-.877-.53-1.577 0-2.032 1.52-3.852 3.958-3.852 2.16 0 3.346 1.32 3.346 3.082 0 2.319-1.026 4.276-2.55 4.276-.84 0-1.47-.696-1.268-1.55.241-1.018.71-2.117.71-2.853 0-.658-.354-1.207-1.085-1.207-.86 0-1.55.89-1.55 2.081 0 .76.256 1.273.256 1.273L8.93 15.856c-.307 1.3-.046 2.895-.024 3.056.013.095.136.118.191.046.08-.104 1.104-1.369 1.452-2.632.099-.358.566-2.21.566-2.21.28.533 1.096 1.002 1.964 1.002 2.585 0 4.34-2.357 4.34-5.511C17.418 7.22 15.398 5 12.327 5z" fill="currentColor"/></svg>

<?xml version="1.0" encoding="UTF-8" standalone="no"?>
<svg width="24px" height="24px" viewBox="0 0 24 24" version="1.1" xmlns="http://www.w3.org/2000/svg" xmlns:xlink="http://www.w3.org/1999/xlink">
    <!-- Generator: sketchtool 46.2 (44496) - http://www.bohemiancoding.com/sketch -->
    <title>pinterest-small</title>
    <desc>Created with sketchtool.</desc>
    <defs></defs>
    <g id="icons-published" stroke="none" stroke-width="1" fill="none" fill-rule="evenodd">
        <g id="briefing" transform="translate(-68.000000, -1306.000000)"></g>
        <g id="pinterest-small" fill-rule="nonzero" fill="#000000">
            <path d="M12.3,5 C8.5,5 6.6,7.7 6.6,10 C6.6,11.4 7.1,12.6 8.2,13.1 C8.4,13.2 8.5,13.1 8.6,12.9 C8.6,12.8 8.7,12.4 8.8,12.3 C8.9,12.1 8.8,12 8.7,11.9 C8.4,11.5 8.2,11 8.2,10.3 C8.2,8.3 9.7,6.4 12.2,6.4 C14.4,6.4 15.5,7.7 15.5,9.5 C15.5,11.8 14.5,13.8 12.9,13.8 C12.1,13.8 11.4,13.1 11.6,12.2 C11.8,11.2 12.3,10.1 12.3,9.3 C12.3,8.6 11.9,8.1 11.2,8.1 C10.3,8.1 9.6,9 9.6,10.2 C9.6,11 9.9,11.5 9.9,11.5 L8.9,15.9 C8.6,17.2 8.9,18.8 8.9,19 C8.9,19 9,19 9.1,19 C9.2,18.9 10.2,17.6 10.6,16.4 C10.7,16 11.2,14.2 11.2,14.2 C11.5,14.7 12.3,15.2 13.2,15.2 C15.8,15.2 17.5,12.8 17.5,9.7 C17.4,7.2 15.4,5 12.3,5 L12.3,5 Z" id="Shape"></path>
        </g>
    </g>
</svg>
